X:16
T:Miss Rattray of Dalrullzian
C:Robert Petrie
S:Petrie's Collection of Strathspey Reels and Country Dances &c., 1790
Z:Steve Wyrick  2/25/03
N:Petrie's First Collection, page 8
L:1/8
M:6/8
R:Jig
K:G
     f| g2G     B2d  | gab   agf  |gfe  dec | Bdg G2d |
       Tgfg     dBG  | gab   abg  |fga  AB^c| d2d d2 :|
|:   d| dBG     de=f |Tede   c2c  |e^cA efg |Tfef d2d |
        cde     edc  | Bcd   efg  |BcB  AG F| G3  G2 :|
|:   D|[B,3G3][D3A3] |[G3B3][A3c3]|ded  cBA | GBd g2D |
       TGFG   TAGA   |TBAB   cde  |dBG  AFD | G3  G,2:|
|:B/c/|dBG     dBG   | e=fd  c2c  |e^cA ecA | fge d2d |
       ece     dBd   | cBA   BGF  |EcB  AGF | G3  G2 :|
